usr/share/icons/biglinux-icons-material/scalable/apps/goa-account-twitter.svg

<?xml version="1.0" encoding="UTF-8" standalone="no"?>
<svg
   width="24"
   height="24"
   viewBox="0 0 6.349875 6.349875"
   version="1.1"
   id="svg8045"
   sodipodi:docname="web-twitter.svg"
   inkscape:export-filename="web-twitter.pdf"
   inkscape:export-xdpi="300"
   inkscape:export-ydpi="300"
   inkscape:version="1.3 (0e150ed6c4, 2023-07-21)"
   xml:space="preserve"
   xmlns:inkscape="http://www.inkscape.org/namespaces/inkscape"
   xmlns:sodipodi="http://sodipodi.sourceforge.net/DTD/sodipodi-0.dtd"
   xmlns="http://www.w3.org/2000/svg"
   xmlns:svg="http://www.w3.org/2000/svg"><defs
     id="defs8049"><linearGradient
   id="paint0_linear_18_187"
   x1="12"
   y1="1"
   x2="12"
   y2="23"
   gradientUnits="userSpaceOnUse"
   gradientTransform="matrix(0.26457812,0,0,0.26457812,-4.0758199e-6,-8.4144564e-6)"><stop
     stop-color="#33BEF0"
     id="stop43245"
     offset="0"
     style="stop-color:#26b8ef;stop-opacity:1;" /><stop
     offset="1"
     stop-color="#0A85D9"
     id="stop43247"
     style="stop-color:#0093cb;stop-opacity:1;" /></linearGradient><linearGradient
   x1="12"
   y1="1"
   x2="12"
   y2="23"
   gradientUnits="userSpaceOnUse"
   gradientTransform="matrix(0.26457811,0,0,0.26457811,-1.2407581e-4,-1.7614466e-5)"
   spreadMethod="pad"
   id="linearGradient46566"><stop
     style="stop-color:#262626;stop-opacity:1;"
     offset="0"
     id="stop46562" /><stop
     style="stop-color:#000000;stop-opacity:1;"
     offset="1"
     id="stop46564" /></linearGradient>&#10;	&#10;	&#10;</defs><sodipodi:namedview
     id="namedview8047"
     pagecolor="#ffffff"
     bordercolor="#000000"
     borderopacity="0.25"
     inkscape:showpageshadow="2"
     inkscape:pageopacity="0.0"
     inkscape:pagecheckerboard="0"
     inkscape:deskcolor="#d1d1d1"
     showgrid="false"
     inkscape:zoom="6.828125"
     inkscape:cx="29.949657"
     inkscape:cy="24.530892"
     inkscape:window-width="2560"
     inkscape:window-height="998"
     inkscape:window-x="0"
     inkscape:window-y="0"
     inkscape:window-maximized="1"
     inkscape:current-layer="svg8045" /><path
     d="m 2.538066,0.29490721 c 0.031749,0 0.062088,-0.004233 0.091015,-0.012347 0.380287,-0.0250467 0.7605739,-0.0236357 1.1398025,0.002822 0.3443044,0.0275161 0.6776728,0.10195077 1.0004581,0.22436224 C 5.3052004,0.7302264 5.6717292,1.1133355 5.8703392,1.6576609 5.9818148,1.9857377 6.049194,2.3233394 6.0700075,2.6690548 6.0975236,3.1047268 6.0879988,3.5386349 6.0396692,3.9728958 6.0026283,4.277337 5.9239604,4.5694312 5.8026072,4.8505896 5.5778922,5.3384716 5.2127744,5.6746622 4.7086649,5.8591613 4.3005091,5.9970947 3.880359,6.0701183 3.4475092,6.0771737 2.9624493,6.1032788 2.4816227,6.065885 2.0050293,5.9681675 1.1298049,5.7737908 0.58830173,5.239343 0.38440019,4.3655297 0.29761857,3.9728958 0.2574027,3.5746175 0.2658692,3.172106 0.25634439,2.7434895 0.30149905,2.3219283 0.40239151,1.9056588 0.61722893,1.0900526 1.1354493,0.58417928 1.9566997,0.38874424 2.1482543,0.34182572 2.342631,0.31007635 2.538066,0.29490721 Z"
     style="fill:url(#linearGradient46566);fill-rule:evenodd;stroke:none;stroke-width:0.352771"
     id="path46568" /><style
     type="text/css"
     id="style1">&#10;	.st0{stroke:#FFFFFF;stroke-miterlimit:10;}&#10;	.st1{fill:#FFFFFF;}&#10;</style><g
     id="g1"
     transform="matrix(0.00621597,0,0,0.00621597,-1.6852673,-0.77627491)"
     style="stroke-width:42.5644">&#10;		<path
   id="path1"
   class="st1"
   d="M 485.39,356.79 715.46,664.41 483.94,914.52 h 52.11 l 202.7,-218.98 163.77,218.98 h 177.32 L 836.82,589.6 1052.32,356.79 h -52.11 L 813.54,558.46 662.71,356.79 Z m 76.63,38.38 h 81.46 l 359.72,480.97 h -81.46 z"
   style="stroke-width:42.5644" />&#10;	</g></svg>

<svg xmlns="http://www.w3.org/2000/svg" xml:space="preserve" id="svg8045" width="24" height="24" version="1.1" viewBox="0 0 6.35 6.35"><defs id="defs8049"><linearGradient id="paint0_linear_18_187" x1="12" x2="12" y1="1" y2="23" gradientTransform="matrix(.26458 0 0 .26458 0 0)" gradientUnits="userSpaceOnUse"><stop id="stop43245" offset="0" stop-color="#33BEF0" style="stop-color:#26b8ef;stop-opacity:1"/><stop id="stop43247" offset="1" stop-color="#0A85D9" style="stop-color:#0093cb;stop-opacity:1"/></linearGradient><linearGradient id="linearGradient46566" x1="12" x2="12" y1="1" y2="23" gradientTransform="matrix(.26458 0 0 .26458 0 0)" gradientUnits="userSpaceOnUse" spreadMethod="pad"><stop id="stop46562" offset="0" style="stop-color:#262626;stop-opacity:1"/><stop id="stop46564" offset="1" style="stop-color:#000;stop-opacity:1"/></linearGradient></defs><path id="path46568" d="M2.538.295A.335.335 0 0 0 2.63.283c.38-.025.76-.024 1.14.002a3.62 3.62 0 0 1 1 .225c.536.22.903.603 1.101 1.148.112.328.18.665.2 1.011.028.436.018.87-.03 1.304a3.166 3.166 0 0 1-.237.878c-.225.487-.59.824-1.094 1.008a4.125 4.125 0 0 1-1.261.218 5.644 5.644 0 0 1-1.443-.109C1.13 5.774.588 5.24.385 4.366a5.025 5.025 0 0 1-.12-1.194c-.009-.429.036-.85.137-1.266C.617 1.09 1.135.584 1.957.389c.191-.047.386-.079.581-.094Z" style="fill:url(#linearGradient46566);fill-rule:evenodd;stroke:none;stroke-width:.352771"/><style id="style1" type="text/css">.st0{stroke:#fff;stroke-miterlimit:10}</style><g id="g1" style="stroke-width:42.5644" transform="matrix(.00622 0 0 .00622 -1.685 -.776)"><path id="path1" d="m485.39 356.79 230.07 307.62-231.52 250.11h52.11l202.7-218.98 163.77 218.98h177.32L836.82 589.6l215.5-232.81h-52.11L813.54 558.46 662.71 356.79Zm76.63 38.38h81.46l359.72 480.97h-81.46z" style="stroke-width:42.5644;fill:#fff"/></g></svg>
